static/assets/img/icons/theme/design/flip-horizontal.svg

<svg height="24" viewBox="0 0 24 24" width="24" xmlns="http://www.w3.org/2000/svg"><g fill="none" fill-rule="evenodd"><path d="m0 0h24v24h-24z" opacity="0"/><g fill="#000"><path d="m3.73851648 19h4.76148352c.27614237 0 .5-.2238576.5-.5v-11.9037088c0-.27614237-.22385763-.5-.5-.5-.20445229 0-.38830667.12447547-.46423835.31430466l-4.76148351 11.90370884c-.10255671.2563917.02215124.5473769.278543.6499336.05906014.0236241.12208563.0357617.18569534.0357617z" opacity=".3"/><path d="m15.7385165 19h4.7614835c.2761424 0 .5-.2238576.5-.5v-11.9037088c0-.27614237-.2238576-.5-.5-.5-.2044523 0-.3883067.12447547-.4642383.31430466l-4.7614836 11.90370884c-.1025567.2563917.0221513.5473769.278543.6499336.0590602.0236241.1220857.0357617.1856954.0357617z" transform="matrix(-1 0 0 1 36 0)"/><rect height="20" opacity=".3" rx="1" width="2" x="11" y="2"/></g></g></svg>

<svg width="24px" height="24px" viewBox="0 0 24 24" version="1.1" xmlns="http://www.w3.org/2000/svg" xmlns:xlink="http://www.w3.org/1999/xlink">
    <title>Icon For Flip-horizontal</title>
    <g stroke="none" stroke-width="1" fill="none" fill-rule="evenodd">
        <rect opacity="0" x="0" y="0" width="24" height="24"></rect>
        <path d="M3.73851648,19 L8.5,19 C8.77614237,19 9,18.7761424 9,18.5 L9,6.5962912 C9,6.32014883 8.77614237,6.0962912 8.5,6.0962912 C8.29554771,6.0962912 8.11169333,6.22076667 8.03576165,6.41059586 L3.27427814,18.3143047 C3.17172143,18.5706964 3.29642938,18.8616816 3.55282114,18.9642383 C3.61188128,18.9878624 3.67490677,19 3.73851648,19 Z" fill="#000000" opacity="0.3"></path>
        <path d="M15.7385165,19 L20.5,19 C20.7761424,19 21,18.7761424 21,18.5 L21,6.5962912 C21,6.32014883 20.7761424,6.0962912 20.5,6.0962912 C20.2955477,6.0962912 20.1116933,6.22076667 20.0357617,6.41059586 L15.2742781,18.3143047 C15.1717214,18.5706964 15.2964294,18.8616816 15.5528211,18.9642383 C15.6118813,18.9878624 15.6749068,19 15.7385165,19 Z" fill="#000000" transform="translate(18.000000, 12.500000) scale(-1, 1) translate(-18.000000, -12.500000) "></path>
        <rect fill="#000000" opacity="0.3" x="11" y="2" width="2" height="20" rx="1"></rect>
    </g>
</svg>
